img/shop.svg

<svg width="24" height="25" viewBox="0 0 24 25" fill="none" xmlns="http://www.w3.org/2000/svg">
<path d="M14.5 21.6199V16.6199C14.5 16.0676 14.0523 15.6199 13.5 15.6199H10.5C9.94772 15.6199 9.5 16.0676 9.5 16.6199V21.6199" stroke="#9B9B9B" stroke-width="2" stroke-linecap="round" stroke-linejoin="round"/>
<path d="M5 11.6199V17.6199C5 19.5055 5 20.4483 5.58579 21.0341C6.17157 21.6199 7.11438 21.6199 9 21.6199H15C16.8856 21.6199 17.8284 21.6199 18.4142 21.0341C19 20.4483 19 19.5055 19 17.6199V11.6199" stroke="#9B9B9B" stroke-width="2"/>
<path d="M14.148 11.6193L14.1711 10.6196L14.148 11.6193ZM12.2123 9.89368L11.2259 10.0581L12.2123 9.89368ZM12.2296 9.9942L13.2119 9.80704L12.2296 9.9942ZM11.7877 9.89368L12.7741 10.0581L11.7877 9.89368ZM11.7704 9.9942L12.7527 10.1814L11.7704 9.9942ZM9.85199 11.6193L9.82887 10.6196L9.85199 11.6193ZM16.2877 9.89368L15.3013 9.72928L16.2877 9.89368ZM16.2704 9.9942L17.2527 10.1814L16.2704 9.9942ZM14.352 11.6193L14.3751 12.6191L14.352 11.6193ZM7.7123 9.89368L8.6987 9.72928L7.7123 9.89368ZM7.7296 9.9942L8.71193 9.80704L7.7296 9.9942ZM9.64801 11.6193L9.62489 12.6191L9.64801 11.6193ZM7.41878 9.16981L8.23097 9.7532L7.41878 9.16981ZM7.63076 9.40444L6.64437 9.56884L7.63076 9.40444ZM7.58122 9.16981L8.39341 8.58642L7.58122 9.16981ZM18.2405 11.5677L18.0136 12.5416L18.2405 11.5677ZM16.8475 10.3877L15.9241 10.7716L16.8475 10.3877ZM16.5812 9.16981L15.769 9.7532L16.5812 9.16981ZM16.3692 9.40444L15.3828 9.24004L16.3692 9.40444ZM16.4188 9.16981L15.6066 8.58642L16.4188 9.16981ZM5.75951 11.5677L5.98639 12.5416L5.75951 11.5677ZM7.15249 10.3877L8.07586 10.7716L7.15249 10.3877ZM11.8692 9.40444L10.8828 9.24004L11.8692 9.40444ZM11.9188 9.16981L12.731 9.7532L11.9188 9.16981ZM12.1308 9.40444L13.1172 9.24004L12.1308 9.40444ZM12.0812 9.16981L11.269 9.7532L12.0812 9.16981ZM3.28307 10.6876L4.28078 10.6199L3.28307 10.6876ZM3.97306 11.5714L3.66535 12.5228L3.97306 11.5714ZM20.5823 9.94925L19.6122 10.1918L20.5823 9.94925ZM20.7169 10.6876L19.7192 10.6199L20.7169 10.6876ZM20.0269 11.5714L19.7192 10.6199L20.0269 11.5714ZM18.8346 3.83167L19.45 3.04346L18.8346 3.83167ZM5.16536 3.83167L4.54995 3.04346L5.16536 3.83167ZM6.56155 4.61987H17.4384V2.61987H6.56155V4.61987ZM18.4086 5.37734L19.6122 10.1918L21.5525 9.70672L20.3489 4.89227L18.4086 5.37734ZM4.3878 10.1918L5.59141 5.37734L3.65113 4.89227L2.44751 9.70672L4.3878 10.1918ZM8.6987 9.72928L8.61716 9.24004L6.64437 9.56884L6.72591 10.0581L8.6987 9.72928ZM15.3828 9.24004L15.3013 9.72928L17.2741 10.0581L17.3556 9.56884L15.3828 9.24004ZM10.8828 9.24004L10.8013 9.72928L12.7741 10.0581L12.8556 9.56884L10.8828 9.24004ZM13.1987 9.72928L13.1172 9.24004L11.1444 9.56884L11.2259 10.0581L13.1987 9.72928ZM14.25 10.6199C14.1921 10.6199 14.1798 10.6198 14.1711 10.6196L14.1249 12.6191C14.1624 12.6199 14.2027 12.6199 14.25 12.6199V10.6199ZM11.2259 10.0581C11.2337 10.1047 11.2402 10.1445 11.2473 10.1814L13.2119 9.80704C13.2103 9.79848 13.2082 9.78638 13.1987 9.72928L11.2259 10.0581ZM14.1711 10.6196C13.6998 10.6087 13.3002 10.2701 13.2119 9.80704L11.2473 10.1814C11.512 11.5706 12.711 12.5864 14.1249 12.6191L14.1711 10.6196ZM10.8013 9.72928C10.7918 9.78638 10.7897 9.79848 10.7881 9.80704L12.7527 10.1814C12.7598 10.1445 12.7663 10.1047 12.7741 10.0581L10.8013 9.72928ZM9.75 12.6199C9.79728 12.6199 9.83758 12.6199 9.87511 12.6191L9.82887 10.6196C9.82016 10.6198 9.80788 10.6199 9.75 10.6199V12.6199ZM10.7881 9.80704C10.6998 10.2701 10.3002 10.6087 9.82887 10.6196L9.87511 12.6191C11.289 12.5864 12.488 11.5706 12.7527 10.1814L10.7881 9.80704ZM15.3013 9.72928C15.2918 9.78638 15.2897 9.79848 15.2881 9.80704L17.2527 10.1814C17.2598 10.1445 17.2663 10.1047 17.2741 10.0581L15.3013 9.72928ZM14.25 12.6199C14.2973 12.6199 14.3376 12.6199 14.3751 12.6191L14.3289 10.6196C14.3202 10.6198 14.3079 10.6199 14.25 10.6199V12.6199ZM15.2881 9.80704C15.1998 10.2701 14.8002 10.6087 14.3289 10.6196L14.3751 12.6191C15.789 12.5864 16.988 11.5706 17.2527 10.1814L15.2881 9.80704ZM6.72591 10.0581C6.73368 10.1047 6.74024 10.1445 6.74727 10.1814L8.71193 9.80704C8.7103 9.79848 8.70821 9.78638 8.6987 9.72928L6.72591 10.0581ZM9.75 10.6199C9.69212 10.6199 9.67984 10.6198 9.67113 10.6196L9.62489 12.6191C9.66242 12.6199 9.70272 12.6199 9.75 12.6199V10.6199ZM6.74727 10.1814C7.01197 11.5706 8.21099 12.5864 9.62489 12.6191L9.67113 10.6196C9.19983 10.6087 8.80016 10.2701 8.71193 9.80704L6.74727 10.1814ZM8.35563 9.56884C8.36177 9.53202 8.36649 9.5037 8.3706 9.4799C8.37481 9.45555 8.37717 9.44294 8.37835 9.43708C8.38021 9.4278 8.37709 9.44549 8.36842 9.47511C8.36387 9.49065 8.35427 9.52177 8.33806 9.56102C8.32381 9.59555 8.29114 9.66944 8.23097 9.7532L6.60659 8.58642C6.49711 8.73883 6.45612 8.88881 6.44894 8.91335C6.43345 8.96627 6.42328 9.01446 6.41746 9.0435C6.40571 9.10201 6.39354 9.17585 6.38284 9.24004L8.35563 9.56884ZM8.61716 9.24004C8.60646 9.17585 8.59429 9.10201 8.58254 9.0435C8.57672 9.01446 8.56655 8.96627 8.55106 8.91335C8.54388 8.88881 8.50289 8.73883 8.39341 8.58642L6.76903 9.7532C6.70886 9.66944 6.67619 9.59555 6.66194 9.56102C6.64573 9.52177 6.63613 9.49065 6.63158 9.47511C6.62291 9.44549 6.61979 9.4278 6.62165 9.43708C6.62283 9.44294 6.62519 9.45555 6.6294 9.4799C6.63351 9.5037 6.63823 9.53202 6.64437 9.56884L8.61716 9.24004ZM8.23097 9.7532C7.87187 10.2531 7.12813 10.2531 6.76903 9.7532L8.39341 8.58642C7.95451 7.97539 7.04549 7.97539 6.60659 8.58642L8.23097 9.7532ZM19.2641 10.6199C18.6761 10.6199 18.5513 10.6134 18.4674 10.5938L18.0136 12.5416C18.3774 12.6264 18.7858 12.6199 19.2641 12.6199V10.6199ZM15.6444 9.56884C15.7213 10.0304 15.7809 10.427 15.9241 10.7716L17.7709 10.0038C17.7376 9.92383 17.7116 9.8065 17.6172 9.24004L15.6444 9.56884ZM18.4674 10.5938C18.1538 10.5207 17.8945 10.3011 17.7709 10.0038L15.9241 10.7716C16.295 11.6636 17.0728 12.3225 18.0136 12.5416L18.4674 10.5938ZM17.6172 9.24004C17.6065 9.17585 17.5943 9.10201 17.5825 9.0435C17.5767 9.01446 17.5666 8.96627 17.5511 8.91335C17.5439 8.88881 17.5029 8.73883 17.3934 8.58642L15.769 9.7532C15.7089 9.66944 15.6762 9.59555 15.6619 9.56102C15.6457 9.52177 15.6361 9.49065 15.6316 9.47511C15.6229 9.44549 15.6198 9.4278 15.6217 9.43708C15.6228 9.44294 15.6252 9.45555 15.6294 9.4799C15.6335 9.5037 15.6382 9.53202 15.6444 9.56884L17.6172 9.24004ZM17.3556 9.56884C17.3618 9.53202 17.3665 9.5037 17.3706 9.4799C17.3748 9.45555 17.3772 9.44294 17.3783 9.43708C17.3802 9.4278 17.3771 9.44549 17.3684 9.47511C17.3639 9.49065 17.3543 9.52177 17.3381 9.56102C17.3238 9.59555 17.2911 9.66944 17.231 9.7532L15.6066 8.58642C15.4971 8.73883 15.4561 8.88881 15.4489 8.91335C15.4334 8.96627 15.4233 9.01446 15.4175 9.0435C15.4057 9.10201 15.3935 9.17585 15.3828 9.24004L17.3556 9.56884ZM17.3934 8.58642C16.9545 7.97539 16.0455 7.97539 15.6066 8.58642L17.231 9.7532C16.8719 10.2531 16.1281 10.2531 15.769 9.7532L17.3934 8.58642ZM4.73591 12.6199C5.21417 12.6199 5.62259 12.6264 5.98639 12.5416L5.53263 10.5938C5.44866 10.6134 5.32394 10.6199 4.73591 10.6199V12.6199ZM6.38284 9.24004C6.28844 9.8065 6.26236 9.92383 6.22912 10.0038L8.07586 10.7716C8.21912 10.427 8.27871 10.0304 8.35563 9.56884L6.38284 9.24004ZM5.98639 12.5416C6.92725 12.3225 7.70499 11.6636 8.07586 10.7716L6.22912 10.0038C6.10549 10.3011 5.84625 10.5207 5.53263 10.5938L5.98639 12.5416ZM12.8556 9.56884C12.8618 9.53202 12.8665 9.5037 12.8706 9.4799C12.8748 9.45555 12.8772 9.44294 12.8783 9.43708C12.8802 9.4278 12.8771 9.44549 12.8684 9.47511C12.8639 9.49065 12.8543 9.52177 12.8381 9.56102C12.8238 9.59555 12.7911 9.66944 12.731 9.7532L11.1066 8.58642C10.9971 8.73883 10.9561 8.88881 10.9489 8.91335C10.9334 8.96627 10.9233 9.01446 10.9175 9.0435C10.9057 9.10201 10.8935 9.17585 10.8828 9.24004L12.8556 9.56884ZM13.1172 9.24004C13.1065 9.17585 13.0943 9.10201 13.0825 9.0435C13.0767 9.01446 13.0666 8.96627 13.0511 8.91335C13.0439 8.88881 13.0029 8.73883 12.8934 8.58642L11.269 9.7532C11.2089 9.66944 11.1762 9.59555 11.1619 9.56102C11.1457 9.52177 11.1361 9.49065 11.1316 9.47511C11.1229 9.44549 11.1198 9.4278 11.1217 9.43708C11.1228 9.44294 11.1252 9.45555 11.1294 9.4799C11.1335 9.5037 11.1382 9.53202 11.1444 9.56884L13.1172 9.24004ZM12.731 9.7532C12.3719 10.2531 11.6281 10.2531 11.269 9.7532L12.8934 8.58642C12.4545 7.97539 11.5455 7.97539 11.1066 8.58642L12.731 9.7532ZM2.44751 9.70672C2.40161 9.89031 2.35773 10.0646 2.32878 10.2121C2.2993 10.3622 2.27136 10.549 2.28537 10.7554L4.28078 10.6199C4.28411 10.6689 4.27504 10.6802 4.29131 10.5974C4.3081 10.5118 4.33685 10.3956 4.3878 10.1918L2.44751 9.70672ZM4.73591 10.6199C4.52137 10.6199 4.39761 10.6196 4.30765 10.6151C4.21911 10.6106 4.23243 10.6042 4.28078 10.6199L3.66535 12.5228C3.86373 12.587 4.0542 12.6049 4.20744 12.6126C4.35926 12.6202 4.54191 12.6199 4.73591 12.6199V10.6199ZM2.28537 10.7554C2.34078 11.5713 2.88729 12.2712 3.66535 12.5228L4.28078 10.6199L2.28537 10.7554ZM19.6122 10.1918C19.6631 10.3956 19.6919 10.5118 19.7087 10.5974C19.725 10.6802 19.7159 10.6689 19.7192 10.6199L21.7146 10.7554C21.7286 10.549 21.7007 10.3622 21.6712 10.2121C21.6423 10.0646 21.5984 9.89031 21.5525 9.70672L19.6122 10.1918ZM19.2641 12.6199C19.4581 12.6199 19.6407 12.6202 19.7926 12.6126C19.9458 12.6049 20.1363 12.587 20.3347 12.5228L19.7192 10.6199C19.7676 10.6042 19.7809 10.6106 19.6923 10.6151C19.6024 10.6196 19.4786 10.6199 19.2641 10.6199V12.6199ZM19.7192 10.6199L20.3347 12.5228C21.1127 12.2712 21.6592 11.5713 21.7146 10.7554L19.7192 10.6199ZM17.4384 4.61987C17.8378 4.61987 18.049 4.62154 18.1973 4.63927C18.3189 4.65382 18.2806 4.66777 18.2192 4.61987L19.45 3.04346C19.1174 2.78377 18.7559 2.69183 18.4348 2.65342C18.1403 2.61821 17.7891 2.61987 17.4384 2.61987V4.61987ZM20.3489 4.89227C20.2638 4.55211 20.1803 4.21094 20.0747 3.93381C19.9595 3.63156 19.7827 3.30315 19.45 3.04346L18.2192 4.61987C18.1579 4.57198 18.1621 4.53136 18.2057 4.64583C18.2589 4.78544 18.3117 4.98994 18.4086 5.37734L20.3489 4.89227ZM6.56155 2.61987C6.21093 2.61987 5.85967 2.61821 5.56522 2.65342C5.24406 2.69183 4.88256 2.78377 4.54995 3.04346L5.78078 4.61987C5.71943 4.66777 5.68105 4.65382 5.80268 4.63927C5.95102 4.62154 6.16223 4.61987 6.56155 4.61987V2.61987ZM5.59141 5.37734C5.68826 4.98994 5.7411 4.78544 5.79428 4.64583C5.83789 4.53136 5.84212 4.57198 5.78078 4.61987L4.54995 3.04346C4.21735 3.30315 4.04047 3.63156 3.92532 3.93381C3.81974 4.21094 3.73617 4.55211 3.65113 4.89227L5.59141 5.37734Z" fill="#9B9B9B"/>
</svg>

<svg width="24" height="25" fill="none" xmlns="http://www.w3.org/2000/svg"><path d="M14.5 21.62v-5a1 1 0 0 0-1-1h-3a1 1 0 0 0-1 1v5" stroke="#9B9B9B" stroke-width="2" stroke-linecap="round" stroke-linejoin="round"/><path d="M5 11.62v6c0 1.886 0 2.828.586 3.414.586.586 1.528.586 3.414.586h6c1.886 0 2.828 0 3.414-.586.586-.586.586-1.528.586-3.414v-6" stroke="#9B9B9B" stroke-width="2"/><path d="m14.148 11.62.023-1-.023 1Zm-1.936-1.726-.986.164.986-.164Zm.018.1.982-.187-.982.187Zm-.442-.1.986.164-.986-.164Zm-.018.1.983.187-.983-.187ZM9.852 11.62l-.023-1 .023 1Zm6.436-1.725-.987-.165.987.165Zm-.018.1.983.187-.983-.187Zm-1.918 1.625.023 1-.023-1Zm-6.64-1.725.987-.165-.987.165Zm.018.1.982-.187-.982.187Zm1.918 1.625-.023 1 .023-1Zm-2.23-2.45.813.584-.812-.583Zm.213.235-.987.165.987-.165Zm-.05-.234.812-.584-.812.584Zm10.66 2.398-.227.974.227-.974Zm-1.393-1.18-.924.384.924-.384ZM16.58 9.17l-.812.583.812-.583Zm-.212.234-.986-.164.986.164Zm.05-.234-.812-.584.812.584Zm-10.66 2.398.227.974-.226-.974Zm1.393-1.18.924.384-.924-.384Zm4.717-.984-.986-.164.986.164Zm.05-.234.812.583-.812-.583Zm.212.234.986-.164-.986.164Zm-.05-.234-.812.583.812-.583Zm-8.798 1.518.998-.068-.998.068Zm.69.883-.308.952.308-.952Zm16.61-1.622-.97.243.97-.243Zm.134.739-.998-.068.998.068Zm-.69.883-.308-.951.308.951Zm-1.192-7.74.615-.788-.615.789Zm-13.67 0-.615-.788.615.789Zm1.397.789h10.876v-2H6.562v2Zm11.847.757 1.203 4.815 1.94-.485-1.203-4.815-1.94.485ZM4.388 10.192 5.59 5.377l-1.94-.485-1.203 4.815 1.94.485Zm4.31-.463-.08-.489-1.974.329.082.49 1.973-.33Zm6.685-.489-.082.49 1.973.328.082-.49-1.973-.328Zm-4.5 0-.082.49 1.973.328.082-.49-1.973-.328Zm2.316.49-.082-.49-1.973.329.082.49 1.973-.33Zm1.051.89h-.079l-.046 2h.125v-2Zm-3.024-.562.021.123 1.965-.374a4.836 4.836 0 0 1-.013-.078l-1.973.33Zm2.945.562a1 1 0 0 1-.96-.813l-1.964.374a3 3 0 0 0 2.878 2.438l.046-2Zm-3.37-.89-.013.077 1.965.374.021-.123-1.973-.329ZM9.75 12.62h.125l-.046-2H9.75v2Zm1.038-2.813a1 1 0 0 1-.96.813l.047 2a3 3 0 0 0 2.878-2.439l-1.965-.374Zm4.513-.078-.013.078 1.965.374.021-.123-1.973-.329Zm-1.051 2.89h.125l-.046-2h-.079v2Zm1.038-2.812a1 1 0 0 1-.96.813l.047 2a3 3 0 0 0 2.878-2.439l-1.965-.374Zm-8.562.251.021.123 1.965-.374a4.343 4.343 0 0 1-.013-.078l-1.973.33Zm3.024.562h-.079l-.046 2h.125v-2Zm-3.003-.439a3 3 0 0 0 2.878 2.438l.046-2a1 1 0 0 1-.96-.812l-1.964.374Zm1.609-.612.015-.09.007-.042c.002-.01 0 .008-.01.038a.953.953 0 0 1-.137.278L6.607 8.586c-.11.153-.15.303-.158.327a1.548 1.548 0 0 0-.032.13l-.034.197 1.973.329Zm.261-.329c-.01-.064-.023-.138-.034-.197a1.548 1.548 0 0 0-.032-.13c-.007-.024-.048-.174-.158-.327L6.77 9.753a.953.953 0 0 1-.137-.278c-.01-.03-.012-.047-.01-.038l.007.043c.005.024.01.052.015.089l1.973-.329Zm-.386.513a.9.9 0 0 1-1.462 0l1.624-1.167a1.1 1.1 0 0 0-1.786 0L8.23 9.753Zm11.033.867c-.588 0-.713-.007-.797-.026l-.453 1.948c.363.084.772.078 1.25.078v-2Zm-3.62-1.051c.077.461.137.858.28 1.203l1.847-.768c-.033-.08-.06-.197-.154-.764l-1.973.329Zm2.823 1.025a1 1 0 0 1-.696-.59l-1.847.768a3 3 0 0 0 2.09 1.77l.453-1.948Zm-.85-1.354c-.01-.064-.023-.138-.035-.197a1.53 1.53 0 0 0-.03-.13c-.008-.024-.05-.174-.159-.327L15.77 9.753a.96.96 0 0 1-.137-.278c-.01-.03-.012-.047-.01-.038l.007.043c.005.024.01.052.015.089l1.973-.329Zm-.261.329.015-.09.007-.042c.002-.01 0 .008-.01.038a.96.96 0 0 1-.137.278l-1.624-1.167c-.11.153-.15.303-.158.327a1.53 1.53 0 0 0-.031.13c-.012.059-.024.133-.035.197l1.973.329Zm.037-.983a1.1 1.1 0 0 0-1.786 0l1.624 1.167a.9.9 0 0 1-1.462 0l1.624-1.167ZM4.736 12.62c.478 0 .887.006 1.25-.078l-.453-1.948c-.084.02-.21.026-.797.026v2Zm1.647-3.38c-.095.566-.12.684-.154.764l1.847.768c.143-.345.203-.742.28-1.203L6.383 9.24Zm-.397 3.302a3 3 0 0 0 2.09-1.77l-1.847-.768a1 1 0 0 1-.696.59l.453 1.948Zm6.87-2.973.015-.09.007-.042c.002-.01 0 .008-.01.038a.96.96 0 0 1-.137.278l-1.624-1.167c-.11.153-.15.303-.158.327a1.53 1.53 0 0 0-.031.13c-.012.059-.024.133-.035.197l1.973.329Zm.261-.329c-.01-.064-.023-.138-.035-.197a1.53 1.53 0 0 0-.03-.13c-.008-.024-.05-.174-.159-.327L11.27 9.753a.96.96 0 0 1-.137-.278c-.01-.03-.012-.047-.01-.038l.007.043c.005.024.01.052.015.089l1.973-.329Zm-.386.513a.9.9 0 0 1-1.462 0l1.624-1.167a1.1 1.1 0 0 0-1.786 0l1.624 1.167ZM2.448 9.707c-.046.183-.09.358-.12.505-.029.15-.057.337-.043.543l1.996-.135c.003.049-.006.06.01-.023.017-.085.046-.201.097-.405l-1.94-.485Zm2.288.913c-.215 0-.338 0-.428-.005-.089-.004-.076-.01-.027.005l-.616 1.903c.199.064.39.082.542.09.152.007.335.007.529.007v-2Zm-2.45.135a2 2 0 0 0 1.38 1.768l.615-1.903-1.996.135Zm17.326-.563c.051.204.08.32.097.405.016.083.007.072.01.023l1.996.135a2.068 2.068 0 0 0-.044-.543c-.029-.147-.073-.322-.119-.505l-1.94.485Zm-.348 2.428c.194 0 .377 0 .529-.007a2.08 2.08 0 0 0 .542-.09l-.616-1.903c.049-.016.062-.01-.027-.005-.09.005-.213.005-.428.005v2Zm.455-2 .616 1.903a2 2 0 0 0 1.38-1.768l-1.996-.135Zm-2.28-6c.399 0 .61.002.758.02.122.014.084.028.022-.02l1.231-1.577c-.333-.26-.694-.351-1.015-.39-.295-.035-.646-.033-.997-.033v2Zm2.91.272c-.085-.34-.169-.681-.274-.958-.116-.302-.292-.63-.625-.89L18.22 4.62c-.062-.048-.058-.089-.014.026.053.14.106.344.203.731l1.94-.485ZM6.562 2.62c-.351 0-.702-.002-.997.033-.32.039-.682.13-1.015.39L5.78 4.62c-.06.048-.099.034.023.02.148-.018.36-.02.759-.02v-2Zm-.97 2.757c.096-.387.15-.592.202-.731.044-.115.048-.074-.013-.026L4.55 3.043c-.333.26-.51.589-.625.89-.105.278-.189.62-.274.96l1.94.484Z" fill="#9B9B9B"/></svg>
